X:1
T: John Kelly
C:
R:Jig
Q:180
K:D
M:6/8
L:1/16
|:f4A2 A2B2A2|B4A2 d2e2d2|c4B2 B4A2|g6f4e2|
f4A2 A2B2A2|B4A2 d2e2d2|c4B2 B4A2|1d6d4e2:|2d6 d2e2f2|
g6 g2f2e2|f6 f2e2d2|B4e2 e4f2|e4d2 B4d2|
g4a2 g2f2e2|f4g2 f2e2d2|B2c2d2 e2f2^g2|a6 g2f2e2|
f4A2 A2B2A2|B4A2 d2e2d2|c4B2 B4A2|g6f4e2|
f4A2 A2B2A2|B4A2 d2e2d2|c4B2 B4A2|d6d4||
